youtube-subscription.svg

<svg fill="currentColor" viewBox="0 0 24 24"><path d="M20 8H4V6h16zm-2-6H6v2h12zm4 10v8a2 2 0 0 1-2 2H4a2 2 0 0 1-2-2v-8a2 2 0 0 1 2-2h16a2 2 0 0 1 2 2m-6 4-6-3.27v6.53z"/></svg>

<svg  viewBox="0 0 24 24" fill="currentColor"><path  d="M20,8H4V6H20V8M18,2H6V4H18V2M22,12V20A2,2 0 0,1 20,22H4A2,2 0 0,1 2,20V12A2,2 0 0,1 4,10H20A2,2 0 0,1 22,12M16,16L10,12.73V19.26L16,16Z"/></svg>
